X: 6
T:La Bouréo de San Martin
R:---
O:Val Varaita, Italie
M:2/4
L:1/8
K:G
GB|:d>d de|d2 Bd|cA FA|BG GB|d>d de|d2 Bd|cA FA|G2
Bd| cA FA|"1)"B>G Bd|cA FA|BG GB|d>d de|d2 Bd|["n bbois" cA FA|G2 G2|G2 GB:|["bbin" cA dd|G2 d2|g2
"Variante"|"1)"BG Bd|c>A Fd|

%%footer $D   Galouvielle-MBe 2006 \n--- (Val Varaita, Italie)
